src/qt/btcu/res/img/ic-transaction-cs-contract.svg

<svg width="24" height="24" viewBox="0 0 24 24" fill="none" xmlns="http://www.w3.org/2000/svg">
<path d="M17.8 15.3996L14.7 12.5996L13.2 11.2996C13 11.0996 12.8 10.9996 12.6 10.8996C12.2 10.6996 11.7 10.6996 11.3 10.7996C11.2 10.7996 11.1 10.7996 11 10.8996C10.9 10.9996 10.8 11.0996 10.7 11.1996C10.4 11.6996 10 12.0996 9.5 12.3996C9 12.6996 8.3 12.5996 7.9 12.0996C8.1 11.7996 8.2 11.3996 8.3 11.0996C8.3 10.3996 8.6 9.79961 9 9.29961C9.3 8.99961 9.7 8.79961 10 8.59961L10.3 8.49961C9.4 8.39961 8.5 8.59961 7.8 9.09961L7.5 9.29961C7.3 9.49961 7.1 9.59961 6.8 9.69961C6.5 9.79961 6.2 9.79961 6 9.79961H4C4 9.79961 2.8 9.59961 2.8 9.69961L2.5 14.3996L2.9 14.7996H6.2C6.4 14.2996 6.7 13.8996 7.1 13.6996C7.4 13.5996 7.7 13.5996 8 13.6996C8.1 13.7996 8.3 13.8996 8.3 13.9996C8.5 13.7996 8.8 13.5996 9.1 13.5996C9.4 13.5996 9.7 13.6996 9.9 13.9996C10.1 13.7996 10.4 13.5996 10.7 13.5996C11 13.5996 11.3 13.7996 11.5 13.9996C11.8 13.7996 12.1 13.6996 12.5 13.7996C12.9 13.8996 13.2 14.2996 13.2 14.6996C13.2 14.8996 13.1 15.0996 13 15.2996C12.6 15.9996 12.2 16.5996 11.8 17.2996C12.1 17.6996 12.5 17.9996 13 17.9996C13.2 17.9996 13.3 17.8996 13.4 17.7996C13.4 17.6996 13.4 17.5996 13.4 17.5996C13.4 17.4996 13.3 17.3996 13.2 17.3996L12.5 16.6996L12.8 16.4996L13.6 17.1996C13.8 17.3996 14.1 17.5996 14.4 17.5996C14.6 17.5996 14.7 17.4996 14.8 17.3996C14.9 17.2996 14.9 17.1996 14.9 17.0996C14.8 16.9996 14.8 16.8996 14.6 16.7996L13.6 15.7996V15.6996V15.5996L13.8 15.3996V15.2996L13.9 15.3996C14.4 15.8996 14.9 16.2996 15.4 16.6996C15.6 16.8996 15.9 16.9996 16.2 16.9996C16.4 16.8996 16.6 16.6996 16.5 16.3996C16.4 16.1996 16.3 15.9996 16.1 15.8996L14.6 14.4996L14.9 14.1996V14.2996C15.5 14.7996 16.1 15.3996 16.7 15.8996C16.9 16.0996 17.2 16.1996 17.5 16.2996C17.8 16.3996 18 16.1996 18.1 15.8996C18.2 15.8996 18 15.5996 17.8 15.3996Z" fill="#262642"/>
<path d="M21.1 9.9C20.9 9.9 19.6 10 19.5 10H17.1C16.7 10 16.3 10 15.9 9.9C15.5 9.8 15 9.5 14.7 9.2C14.3 8.9 13.9 8.7 13.4 8.6C13.1 8.5 12.8 8.5 12.5 8.5H12.1C11.9 8.5 11.7 8.5 11.5 8.5C11.2 8.5 11 8.6 10.7 8.8C10.5 8.9 10.3 9 10.1 9.1C9.69995 9.2 9.39995 9.5 9.09995 9.8C8.99995 9.9 8.89995 10.2 8.79995 10.4L8.19995 11.7C8.29995 11.8 8.49995 11.8 8.59995 11.8H8.69995C9.09995 11.7 9.39995 11.5 9.59995 11.2L9.79995 11C9.99995 10.7 10.2 10.5 10.5 10.3C10.8 10.1 11.1 10.1 11.5 10.1H11.9C12.1 10.1 12.4 10.1 12.6 10.2C12.8 10.3 13 10.4 13.2 10.6L17.7 14.5C17.8 14.6 17.9 14.7 18 14.7H19.5L21.3 14.6C21.3 13.8 21.5 13 21.4 12.2C21.3 11.4 21.1 10.7 21.1 9.9Z" fill="#262642"/>
<path d="M6.4999 16.0996C6.6999 16.1996 6.8999 16.1996 7.0999 16.0996C7.2999 15.9996 7.3999 15.7996 7.4999 15.5996L7.8999 14.7996C7.8999 14.6996 7.9999 14.5996 7.9999 14.3996C7.9999 14.2996 7.7999 14.1996 7.6999 14.0996H7.5999C6.9999 14.0996 6.5999 14.8996 6.3999 15.5996C6.3999 15.6996 6.3999 15.6996 6.3999 15.7996C6.3999 15.9996 6.3999 16.0996 6.4999 16.0996Z" fill="#262642"/>
<path d="M9.6001 14.5997C9.6001 14.3997 9.5001 14.1997 9.3001 14.1997H9.2001H9.1001C8.9001 14.2997 8.7001 14.3997 8.6001 14.5997C8.4001 14.8997 8.2001 15.1997 8.0001 15.5997C7.9001 15.6997 7.9001 15.8997 7.8001 15.9997C7.7001 16.1997 7.6001 16.2997 7.6001 16.4997C7.6001 16.5997 7.6001 16.6997 7.7001 16.7997C7.8001 16.8997 7.9001 16.8997 8.0001 16.8997C8.1001 16.8997 8.3001 16.7997 8.4001 16.6997C8.5001 16.5997 8.5001 16.4997 8.6001 16.3997L9.1001 15.3997L9.3001 15.0997C9.4001 14.9997 9.5001 14.7997 9.6001 14.5997Z" fill="#262642"/>
<path d="M11.2 14.4998C11.2 14.3998 11.1 14.2998 10.9 14.2998H10.7C10.4 14.2998 10.1 14.4998 9.90005 14.9998L9.00005 16.5998C8.90005 16.7998 8.80005 16.9998 8.80005 17.1998C8.80005 17.3998 9.00005 17.5998 9.20005 17.5998C9.30005 17.5998 9.50005 17.5998 9.60005 17.4998C9.70005 17.3998 9.80005 17.2998 9.80005 17.1998L11.1 14.9998C11.2 14.8998 11.2 14.7998 11.2 14.7998C11.3 14.5998 11.3 14.4998 11.2 14.4998Z" fill="#262642"/>
<path d="M12.5 14.3999H12.4C12 14.3999 11.8 14.7999 11.5 15.1999L11.4 15.3999L10.4 17.1999C10.4 17.2999 10.3 17.3999 10.3 17.4999C10.3 17.5999 10.3 17.6999 10.3 17.7999C10.4 17.8999 10.4 17.9999 10.5 17.9999C10.7 18.0999 10.9 18.0999 11.1 17.8999C11.2 17.7999 11.3 17.6999 11.4 17.4999L12.7 15.3999C12.8 15.1999 12.9 14.9999 12.9 14.7999C12.8 14.5999 12.6 14.3999 12.5 14.3999Z" fill="#262642"/>
<path d="M15.7999 9.2998C15.8999 9.1998 16.2999 8.6998 16.2999 8.4998C16.2999 8.3998 16.2999 8.3998 16.2999 8.4998C16.0999 8.4998 15.8999 8.4998 15.6999 8.4998H14.3999C14.7999 8.7998 15.2999 9.0998 15.7999 9.2998Z" fill="#262642"/>
<path d="M12 22.2002C17.5228 22.2002 22 17.723 22 12.2002C22 6.67735 17.5228 2.2002 12 2.2002C6.47715 2.2002 2 6.67735 2 12.2002C2 17.723 6.47715 22.2002 12 22.2002Z" stroke="#262642" stroke-width="2" stroke-miterlimit="10"/>
<path d="M12 22.2002C17.5228 22.2002 22 17.723 22 12.2002C22 6.67735 17.5228 2.2002 12 2.2002C6.47715 2.2002 2 6.67735 2 12.2002C2 17.723 6.47715 22.2002 12 22.2002Z" stroke="#262642" stroke-width="2" stroke-miterlimit="10"/>
</svg>

<?xml version="1.0" encoding="utf-8"?>
<!-- Generator: Adobe Illustrator 23.1.1, SVG Export Plug-In . SVG Version: 6.00 Build 0)  -->
<svg version="1.1" id="ic-transaction-staked" xmlns="http://www.w3.org/2000/svg" xmlns:xlink="http://www.w3.org/1999/xlink"
     width="24" height="24" x="0px" y="0px" viewBox="0 0 24 24" style="enable-background:new 0 0 24 24;" xml:space="preserve">
<style type="text/css">
	.st0{fill:#707070;}
	.st1{fill:none;stroke:#707070;stroke-width:2;stroke-miterlimit:10;}
</style>
    <title>contract-icon-reward</title>
    <g>
	<path class="st0" d="M17.8,15.4l-3.1-2.8l-1.5-1.3c-0.2-0.2-0.4-0.3-0.6-0.4c-0.4-0.2-0.9-0.2-1.3-0.1c-0.1,0-0.2,0-0.3,0.1
		c-0.1,0.1-0.2,0.2-0.3,0.3c-0.3,0.5-0.7,0.9-1.2,1.2c-0.5,0.3-1.2,0.2-1.6-0.3l0,0l0,0c0.2-0.3,0.3-0.7,0.4-1
		C8.3,10.4,8.6,9.8,9,9.3C9.3,9,9.7,8.8,10,8.6l0.3-0.1C9.4,8.4,8.5,8.6,7.8,9.1L7.5,9.3C7.3,9.5,7.1,9.6,6.8,9.7
		C6.5,9.8,6.2,9.8,6,9.8H4c0,0-1.2-0.2-1.2-0.1l-0.3,4.7c0,0,0.4,0.4,0.4,0.4l3.3,0c0.2-0.5,0.5-0.9,0.9-1.1c0.3-0.1,0.6-0.1,0.9,0
		c0.1,0.1,0.3,0.2,0.3,0.3c0.2-0.2,0.5-0.4,0.8-0.4c0.3,0,0.6,0.1,0.8,0.4c0.2-0.2,0.5-0.4,0.8-0.4l0,0c0.3,0,0.6,0.2,0.8,0.4
		c0.3-0.2,0.6-0.3,1-0.2c0.4,0.1,0.7,0.5,0.7,0.9c0,0.2-0.1,0.4-0.2,0.6c-0.4,0.7-0.8,1.3-1.2,2c0.3,0.4,0.7,0.7,1.2,0.7l0,0
		c0.2,0,0.3-0.1,0.4-0.2c0-0.1,0-0.2,0-0.2c0-0.1-0.1-0.2-0.2-0.2l-0.7-0.7l0.3-0.2l0.8,0.7c0.2,0.2,0.5,0.4,0.8,0.4l0,0
		c0.2,0,0.3-0.1,0.4-0.2c0.1-0.1,0.1-0.2,0.1-0.3c-0.1-0.1-0.1-0.2-0.3-0.3l-1-1v-0.1v-0.1l0.2-0.2v-0.1l0.1,0.1
		c0.5,0.5,1,0.9,1.5,1.3c0.2,0.2,0.5,0.3,0.8,0.3c0.2-0.1,0.4-0.3,0.3-0.6c-0.1-0.2-0.2-0.4-0.4-0.5l-1.5-1.4l0.3-0.3v0.1
		c0.6,0.5,1.2,1.1,1.8,1.6c0.2,0.2,0.5,0.3,0.8,0.4c0.3,0.1,0.5-0.1,0.6-0.4C18.2,15.9,18,15.6,17.8,15.4z"/>
        <path class="st0" d="M21.1,9.9c-0.2,0-1.5,0.1-1.6,0.1h-2.4c-0.4,0-0.8,0-1.2-0.1c-0.4-0.1-0.9-0.4-1.2-0.7
		c-0.4-0.3-0.8-0.5-1.3-0.6c-0.3-0.1-0.6-0.1-0.9-0.1h-0.4c-0.2,0-0.4,0-0.6,0c-0.3,0-0.5,0.1-0.8,0.3c-0.2,0.1-0.4,0.2-0.6,0.3
		c-0.4,0.1-0.7,0.4-1,0.7C9,9.9,8.9,10.2,8.8,10.4l-0.6,1.3l0,0l0,0c0.1,0.1,0.3,0.1,0.4,0.1h0.1c0.4-0.1,0.7-0.3,0.9-0.6l0.2-0.2
		c0.2-0.3,0.4-0.5,0.7-0.7c0.3-0.2,0.6-0.2,1-0.2h0.4c0.2,0,0.5,0,0.7,0.1c0.2,0.1,0.4,0.2,0.6,0.4l4.5,3.9c0.1,0.1,0.2,0.2,0.3,0.2
		h1.5l1.8-0.1c0-0.8,0.2-1.6,0.1-2.4S21.1,10.7,21.1,9.9z"/>
        <path class="st0" d="M6.5,16.1c0.2,0.1,0.4,0.1,0.6,0c0.2-0.1,0.3-0.3,0.4-0.5l0.4-0.8C7.9,14.7,8,14.6,8,14.4
		c0-0.1-0.2-0.2-0.3-0.3H7.6c-0.6,0-1,0.8-1.2,1.5c0,0.1,0,0.1,0,0.2C6.4,16,6.4,16.1,6.5,16.1z"/>
        <path class="st0" d="M9.6,14.6c0-0.2-0.1-0.4-0.3-0.4c0,0,0,0,0,0H9.2H9.1c-0.2,0.1-0.4,0.2-0.5,0.4c-0.2,0.3-0.4,0.6-0.6,1
		c-0.1,0.1-0.1,0.3-0.2,0.4c-0.1,0.2-0.2,0.3-0.2,0.5c0,0.1,0,0.2,0.1,0.3c0.1,0.1,0.2,0.1,0.3,0.1c0.1,0,0.3-0.1,0.4-0.2
		c0.1-0.1,0.1-0.2,0.2-0.3l0.5-1l0.2-0.3C9.4,15,9.5,14.8,9.6,14.6z"/>
        <path class="st0" d="M11.2,14.5c0-0.1-0.1-0.2-0.3-0.2h-0.2c-0.3,0-0.6,0.2-0.8,0.7l-0.9,1.6c-0.1,0.2-0.2,0.4-0.2,0.6
		c0,0.2,0.2,0.4,0.4,0.4c0.1,0,0.3,0,0.4-0.1c0.1-0.1,0.2-0.2,0.2-0.3l1.3-2.2c0.1-0.1,0.1-0.2,0.1-0.2
		C11.3,14.6,11.3,14.5,11.2,14.5z"/>
        <path class="st0" d="M12.5,14.4h-0.1c-0.4,0-0.6,0.4-0.9,0.8l-0.1,0.2l-1,1.8c0,0.1-0.1,0.2-0.1,0.3c0,0.1,0,0.2,0,0.3
		c0.1,0.1,0.1,0.2,0.2,0.2c0.2,0.1,0.4,0.1,0.6-0.1c0.1-0.1,0.2-0.2,0.3-0.4l1.3-2.1c0.1-0.2,0.2-0.4,0.2-0.6
		C12.8,14.6,12.6,14.4,12.5,14.4z"/>
        <path class="st0" d="M15.8,9.3L15.8,9.3c0.1-0.1,0.5-0.6,0.5-0.8c0-0.1,0-0.1,0,0c-0.2,0-0.4,0-0.6,0h-1.3
		C14.8,8.8,15.3,9.1,15.8,9.3L15.8,9.3z"/>
</g>
    <circle class="st1" cx="12" cy="12.2" r="10"/>
</svg>
